03/images/icon-firstview-info-blog.svg

<svg fill="none" height="50" viewBox="0 0 50 50" width="50" xmlns="http://www.w3.org/2000/svg"><path d="m25 .242676c-13.8069 0-25 10.977824-25 24.519224s11.1931 24.5192 25 24.5192 25-10.9778 25-24.5192-11.1931-24.519224-25-24.519224zm6.3194 19.803324c.3514.2139 2.1431.9168 4.0667.1758 1.0875.2778-2.2514 4.3535-7.675 4.788-2.2597.3474 1.575 1.0489 3.3153.2902 1.3222-.2479-2.8806 5.1177-9.0236 5.3084-4.2139.1294-6 4.6995-8.7722 9.6987-1.4445 2.6045-3.90699 1.1129-2.5639-1.4071 0 0 4.8805-9.7669 6.1152-12.118 0 0 5.1292-11.475 13.4612-14.2933 8.1736-2.76525 9.425-4.63553 9.425-4.63553s1.2222 11.02953-8.3487 12.19283z" fill="#333"/></svg>

<svg width="50" height="50" viewBox="0 0 50 50" fill="none" xmlns="http://www.w3.org/2000/svg">
<path d="M25 0.242676C11.1931 0.242676 0 11.2205 0 24.7619C0 38.3033 11.1931 49.2811 25 49.2811C38.8069 49.2811 50 38.3033 50 24.7619C50 11.2205 38.8069 0.242676 25 0.242676ZM31.3194 20.046C31.6708 20.2599 33.4625 20.9628 35.3861 20.2218C36.4736 20.4996 33.1347 24.5753 27.7111 25.0098C25.4514 25.3572 29.2861 26.0587 31.0264 25.3C32.3486 25.0521 28.1458 30.4177 22.0028 30.6084C17.7889 30.7378 16.0028 35.3079 13.2306 40.3071C11.7861 42.9116 9.32361 41.42 10.6667 38.9C10.6667 38.9 15.5472 29.1331 16.7819 26.782C16.7819 26.782 21.9111 15.307 30.2431 12.4887C38.4167 9.72345 39.6681 7.85317 39.6681 7.85317C39.6681 7.85317 40.8903 18.8827 31.3194 20.046Z" fill="white"/>
</svg>
